X: 8012
T: Connaughtman's Rambles, The
R: jig
M: 6/8
K: Dmajor
|:FAA dAA|BAB dAG|FAA dfe|dBA BAG|
FAA dAA|BAB def|gfe dfe|1 dBA BAG:|2 dBA B2g||
|:fbb faa|~f3 deg|fbb faa|fed e2g|
fbb faa|~f3 def|gfe dfe|dBA B2g:|
|:faa gab|afd d2g|faa gab|afd e2g|
faa gab|afd def|gfe dfe|1 dBA B2g:|2 dBA BAG||

